.local/share/icons/Gruvbox-Plus-Dark/apps/16/nedit.svg

<svg width="16" height="16" version="1.1" xmlns="http://www.w3.org/2000/svg">
  <defs>
    <style id="current-color-scheme" type="text/css">.ColorScheme-Text { color:#ebdbb2; } .ColorScheme-Highlight { color:#458588; }</style>
  </defs>
  <path class="ColorScheme-Text" d="m8.701 2.328c-0.277 0.584-0.797 0.815-1.449 0.789-0.929-0.037-1.819 0.491-2.373 1.244-0.352 0.479-0.796 1.086-1.453 0.984-0.561-0.088-1.207 0.314-0.649 0.849 0.39 0.375 0.982 0.344 1.338 0.726 0.674 0.724 1.676 1.001 2.635 1.09 0.149 0.993 0.698 2.212 1.759 2.356 0.96 0.13 0.161-0.975 0.246-1.509 0.132-0.817 0.774-0.19 1.159-0.018 0.497 0.222 1.014 0.548 1.253 1.039 0.422 0.868-0.873 0.401-1.225 0.759-0.428 0.435 0.021 1.192 0.477 1.476 0.501 0.311 0.919 0.705 1.09 1.3 0.15 0.52 0.25 1.929 0.957 1.511 0.674-0.399 0.751-1.379 0.837-2.133 0.085-0.737 0.023-1.499-0.289-2.186 0.811-1.71 0.403-3.815-0.768-5.258-0.405-0.5-0.875-0.954-1.425-1.289 0.375-0.434 0.463-1.074 0.215-1.564-0.294-0.584 0.881-1.407-0.089-1.488-0.894-0.075-1.7 0.551-2.204 1.271-0.487 0.694-0.015 0.018-0.022 0.027-7e-3 8e-3 0.216-0.472-0.02 0.024z" fill="currentColor"/>
</svg>

<svg xmlns="http://www.w3.org/2000/svg" style="isolation:isolate" width="16" height="16" version="1.1" viewBox="0 0 16 16">
 <defs>
  <style id="current-color-scheme" type="text/css">
   .ColorScheme-Text { color:#ebdbb2; } .ColorScheme-Highlight { color:#458588; }
  </style>
  <linearGradient id="arrongin" x1="0%" x2="0%" y1="0%" y2="100%">
   <stop offset="0%" style="stop-color:#d79921; stop-opacity:1"/>
   <stop offset="100%" style="stop-color:#b57614; stop-opacity:1"/>
  </linearGradient>
  <linearGradient id="aurora" x1="0%" x2="0%" y1="0%" y2="100%">
   <stop offset="0%" style="stop-color:#83a598; stop-opacity:1"/>
   <stop offset="100%" style="stop-color:#b16286; stop-opacity:1"/>
  </linearGradient>
  <linearGradient id="fitdance" x1="0%" x2="0%" y1="0%" y2="100%">
   <stop offset="0%" style="stop-color:#8ec07c; stop-opacity:1"/>
   <stop offset="100%" style="stop-color:#458588; stop-opacity:1"/>
  </linearGradient>
  <linearGradient id="oomox" x1="0%" x2="0%" y1="0%" y2="100%">
   <stop offset="0%" style="stop-color:#458588; stop-opacity:1"/>
   <stop offset="100%" style="stop-color:#928374; stop-opacity:1"/>
  </linearGradient>
  <linearGradient id="rainblue" x1="0%" x2="0%" y1="0%" y2="100%">
   <stop offset="0%" style="stop-color:#b8bb26; stop-opacity:1"/>
   <stop offset="100%" style="stop-color:#076678; stop-opacity:1"/>
  </linearGradient>
  <linearGradient id="sunrise" x1="0%" x2="0%" y1="0%" y2="100%">
   <stop offset="0%" style="stop-color: #fe8019; stop-opacity:1"/>
   <stop offset="100%" style="stop-color: #fabd2f; stop-opacity:1"/>
  </linearGradient>
  <linearGradient id="telinkrin" x1="0%" x2="0%" y1="0%" y2="100%">
   <stop offset="0%" style="stop-color: #83a598; stop-opacity:1"/>
   <stop offset="100%" style="stop-color: #83a598; stop-opacity:1"/>
  </linearGradient>
  <linearGradient id="60spsycho" x1="0%" x2="0%" y1="0%" y2="100%">
   <stop offset="0%" style="stop-color: #fb4934; stop-opacity:1"/>
   <stop offset="25%" style="stop-color: #fabd2f; stop-opacity:1"/>
   <stop offset="50%" style="stop-color: #fe8019; stop-opacity:1"/>
   <stop offset="100%" style="stop-color: #689d6a; stop-opacity:1"/>
  </linearGradient>
  <linearGradient id="90ssummer" x1="0%" x2="0%" y1="0%" y2="100%">
   <stop offset="0%" style="stop-color: #b16286; stop-opacity:1"/>
   <stop offset="20%" style="stop-color: #8ec07c; stop-opacity:1"/>
   <stop offset="50%" style="stop-color: #fabd2f; stop-opacity:1"/>
   <stop offset="100%" style="stop-color: #458588; stop-opacity:1"/>
  </linearGradient>
  <linearGradient id="cyberneon" x1="0%" x2="0%" y1="0%" y2="100%">
    <stop offset="0" style="stop-color:#83a598; stop-opacity:1"/>
    <stop offset="1" style="stop-color:#b16286; stop-opacity:1"/>
  </linearGradient>
  <clipPath id="_clipPath_M4AmaoOY3wnQsuXY8sUsLf1ozzva695o">
   <rect width="16" height="16"/>
  </clipPath>
 </defs>
 <g clip-path="url(#_clipPath_M4AmaoOY3wnQsuXY8sUsLf1ozzva695o)">
  <g>
   <path d="M 8.701 2.328 C 8.424 2.912 7.904 3.143 7.252 3.117 C 6.323 3.08 5.433 3.608 4.879 4.361 C 4.527 4.84 4.083 5.447 3.426 5.345 C 2.865 5.257 2.219 5.659 2.777 6.194 C 3.167 6.569 3.759 6.538 4.115 6.92 C 4.789 7.644 5.791 7.921 6.75 8.01 C 6.899 9.003 7.448 10.222 8.509 10.366 C 9.469 10.496 8.67 9.391 8.755 8.857 C 8.887 8.04 9.529 8.667 9.914 8.839 C 10.411 9.061 10.928 9.387 11.167 9.878 C 11.589 10.746 10.294 10.279 9.942 10.637 C 9.514 11.072 9.963 11.829 10.419 12.113 C 10.92 12.424 11.338 12.818 11.509 13.413 C 11.659 13.933 11.759 15.342 12.466 14.924 C 13.14 14.525 13.217 13.545 13.303 12.791 C 13.388 12.054 13.326 11.292 13.014 10.605 C 13.825 8.895 13.417 6.79 12.246 5.347 C 11.841 4.847 11.371 4.393 10.821 4.058 C 11.196 3.624 11.284 2.984 11.036 2.494 C 10.742 1.91 11.917 1.087 10.947 1.006 C 10.053 0.931 9.247 1.557 8.743 2.277 C 8.256 2.971 8.728 2.295 8.721 2.304 C 8.714 2.312 8.937 1.832 8.701 2.328 Z" style="fill:currentColor" class="ColorScheme-Text"/>
  </g>
 </g>
</svg>
